X:23
T:Campell's Farewell To Red Gap
C:Traditional - Arr. Norman Blake
M:4/4
L:1/8
Q:1/8=438
K:A
E2|:"A"A2AB c2cd|e2a2 e2d2|cecB A2Bc|"G"d2dB =G2E2|
"A"A2AB c2cd|ecea e2d2|c2BA "G"=GABG|1 "A"[A2A2][A2A2]\
 [A2A2]E2:|2 "A"[A2A2][A2A2] [A2A2]a=g |
|:"A"e2a2 aba=g|e2[a2A2] [a2A2]ed|cecB\
 A2Bc|1 "G"d2dB =G2a=g|"A"e2a2 [aA]ba=g|
e2[a2A2] [a2A2]ed|c2BA =GABG|A2A2 A2a=g:|2 "G"dBdB =G2E2|
"A"A2ABc2cd|ecea e2d2|
c2BA "G"=GABG|"A"[A2A2][A2A2] [A2A2] (3faf|
 |:"A"e2A2 e2f2|f=g3 (3fgf e2|
"G"d2B2 =G2B2|[d2D2]B2 [d2D2] (3f=gf|"A"e2EA e2f2|f=g3 (3fgf e2|
"G"d2B2 =g2BB|1 "G"B2A2 "A"A2 (3faf:|2 "G"B2A2 "A"A4|
